!!!OTL: Abschiedsstunde
!!!ARE: Europa, Mitteleuropa, Deutschland
!!!SCT: A0269A
!!!YEM: Copyright 1995, estate of Helmut Schaffrath.
**kern
*ICvox
*Ivox
!! Mixed meters:  4/2; 6/2
*M4/2
*k[b-]
*d:
{1fn
=1
2d
2e
2fn
2g
=2
1a
1a}
=3
{1a
=4
*M6/2
1g
2e
2fn
1d
=5
*M4/2
1cn
2r}
{2fn
=6
2fn
2a
2g
2fn
=7
1e
2d}
{2fn
=8
*M6/2
2e
2d
2cn
2d
1B-
=9
1A
2r}
{2A
2A
2A
=10
1d
2d
2.cn
4B-
4A
4G
=11
*M4/2
1Fn
2r}
{2fn
=12
2d
2e
2fn
2g
=13
1.a}
{4g
4fn
=14
1e
1g
=15
*M6/2
2fn
1d
2cn
2d
2B-
=16
0A}
==
!!!AGN: Romanze, Ballade, Lied
!! Joh. Ott 1534 No. 22 - 24.
!!!ONB: ESAC (Essen Associative Code) Database: ALTDEU
!!!AMT: irregular
!!!AIN: vox
!!!EED: Helmut Schaffrath
!!!EEV: 1.0
*-
